X:252
T:AEROPLANE DE COUERON
Z: Yves BELOTTEAU
M:4/4
L:1/8
Q:1/4=93
K:G % 1 sharps
|DBB3/2A/2 GFF2|Dcc3/2A/2 GddB|DBB3/2A/2 GFe2|dcBA/2G/2 AGG2|
B,DG3/2B,/2 DCC2|A,CE3/2D/2 DCB,2|B,DG3/2B,/2 DCA3/2G/2|FDBA GBG2|


